X:12
T:Rory O’More. JMT.012
M:6/8
L:1/8
Q:3/8120
S:J.Moore,Tyneside,1841. (08)
R:.Jig
O:England
A:Northumbria
N:Unusual setting
Z:vmp.John Adams
K:G
g/e/|\
(dG).G AG.G | (dG).G (Gg)e | (d>cB) (BA)G | FAA A2B | !
(cd).e (de).f | .g.f.e d2c | (Bc).d (eg).^c | ddd “qu”d2 :|!
g/e/|\
(dG)G (AG)G | (dG)G G(ge) | (d>cB) (B>AG) | (FA)A A2 B/c/|!
(dG)G AGG | dGGHe2 d/c/ | (B>c)d. .d.e.f| (gG)G ” cr”g3|!
(g>fe) (eB).B | {d}c-BA G2A |(E>FA) GAB | (Be)d d2 e/f/|!
(g>f)e (eB)B | cBA G2 F | (E>FG) (GA).B| (Bd)d “DC”d2|]

